X:212
T:score288
L:1/8
Q:1/4=120
M:6/8
I:linebreak $
K:D
!p! .A.A.A | (B2 A) (dAF | AGF)!<(! (fga)!<)! |!>(! (ag).g!>)! (fe).f | .e z z!pp! .A.A.A | %5
 (B2 A) (dAF | AGF) (a/g/f/e/d/c/) | .B.B.B (cBc | .d) z2 z3 |] %9
